assets/images/component/CookieConsent/icon-cookie.svg

<svg width="40" height="40" viewBox="0 0 40 40" fill="none" xmlns="http://www.w3.org/2000/svg">
<path d="M30.1562 20C30.1562 20.4315 29.8065 20.7812 29.375 20.7812C28.9435 20.7812 28.5938 20.4315 28.5938 20C28.5938 19.5685 28.9435 19.2188 29.375 19.2188C29.8065 19.2188 30.1562 19.5685 30.1562 20Z" fill="#00003F"/>
<path d="M22.3438 15.3125C22.3438 15.744 21.994 16.0938 21.5625 16.0938C21.131 16.0938 20.7812 15.744 20.7812 15.3125C20.7812 14.881 21.131 14.5312 21.5625 14.5312C21.994 14.5312 22.3438 14.881 22.3438 15.3125Z" fill="#00003F"/>
<path d="M20.7812 31.7188C20.7812 32.1503 20.4315 32.5 20 32.5C19.5685 32.5 19.2188 32.1503 19.2188 31.7188C19.2188 31.2872 19.5685 30.9375 20 30.9375C20.4315 30.9375 20.7812 31.2872 20.7812 31.7188Z" fill="#00003F"/>
<path d="M9.0625 17.6562C9.0625 18.0878 8.71277 18.4375 8.28125 18.4375C7.84973 18.4375 7.5 18.0878 7.5 17.6562C7.5 17.2247 7.84973 16.875 8.28125 16.875C8.71277 16.875 9.0625 17.2247 9.0625 17.6562Z" fill="#00003F"/>
<path d="M11.4062 30.9375C13.1293 30.9375 14.5312 29.5355 14.5312 27.8125C14.5312 26.0895 13.1293 24.6875 11.4062 24.6875C9.68323 24.6875 8.28125 26.0895 8.28125 27.8125C8.28125 29.5355 9.68323 30.9375 11.4062 30.9375ZM11.4062 26.25C12.2678 26.25 12.9688 26.951 12.9688 27.8125C12.9688 28.674 12.2678 29.375 11.4062 29.375C10.5447 29.375 9.84375 28.674 9.84375 27.8125C9.84375 26.951 10.5447 26.25 11.4062 26.25Z" fill="#ECB000"/>
<path d="M18.4375 9.84375C18.4375 8.12073 17.0355 6.71875 15.3125 6.71875C13.5895 6.71875 12.1875 8.12073 12.1875 9.84375C12.1875 11.5668 13.5895 12.9688 15.3125 12.9688C17.0355 12.9688 18.4375 11.5668 18.4375 9.84375ZM13.75 9.84375C13.75 8.98224 14.451 8.28125 15.3125 8.28125C16.174 8.28125 16.875 8.98224 16.875 9.84375C16.875 10.7053 16.174 11.4062 15.3125 11.4062C14.451 11.4062 13.75 10.7053 13.75 9.84375Z" fill="#ECB000"/>
<path d="M23.9062 27.0312C23.9062 28.7543 25.3082 30.1562 27.0312 30.1562C28.7543 30.1562 30.1562 28.7543 30.1562 27.0312C30.1562 25.3082 28.7543 23.9062 27.0312 23.9062C25.3082 23.9062 23.9062 25.3082 23.9062 27.0312ZM28.5938 27.0312C28.5938 27.8928 27.8928 28.5938 27.0312 28.5938C26.1697 28.5938 25.4688 27.8928 25.4688 27.0312C25.4688 26.1697 26.1697 25.4688 27.0312 25.4688C27.8928 25.4688 28.5938 26.1697 28.5938 27.0312Z" fill="#ECB000"/>
<path d="M18.4375 23.9062C19.7299 23.9062 20.7812 22.8549 20.7812 21.5625C20.7812 20.2701 19.7299 19.2188 18.4375 19.2188C17.1451 19.2188 16.0938 20.2701 16.0938 21.5625C16.0938 22.8549 17.1451 23.9062 18.4375 23.9062ZM18.4375 20.7812C18.8684 20.7812 19.2188 21.1316 19.2188 21.5625C19.2188 21.9934 18.8684 22.3438 18.4375 22.3438C18.0066 22.3438 17.6562 21.9934 17.6562 21.5625C17.6562 21.1316 18.0066 20.7812 18.4375 20.7812Z" fill="#ECB000"/>
<path d="M20.7812 39.2188C20.7812 39.6503 20.4315 40 20 40C19.5685 40 19.2188 39.6503 19.2188 39.2188C19.2188 38.7872 19.5685 38.4375 20 38.4375C20.4315 38.4375 20.7812 38.7872 20.7812 39.2188Z" fill="#00003F"/>
<path d="M38.6249 16.4395C38.1177 16.6959 37.3016 16.875 36.6406 16.875C35.0879 16.875 33.5583 15.9778 32.9208 14.6933C32.7518 14.3527 32.3618 14.1833 31.9974 14.292C31.4511 14.4553 30.9903 14.5312 30.5469 14.5312C27.7469 14.5312 25.4688 12.2531 25.4688 9.45312C25.4688 9.01001 25.5447 8.54889 25.708 8.00262C25.817 7.63794 25.6476 7.24823 25.3067 7.07916C24.0222 6.44165 23.125 4.91211 23.125 3.35938C23.125 2.69836 23.3041 1.88232 23.5605 1.37512C23.6734 1.15173 23.6725 0.887756 23.558 0.665283C23.4436 0.44281 23.2294 0.288391 22.9819 0.250549C21.8692 0.0796509 20.9219 0 20 0C9.22028 0 0 9.20319 0 20C0 29.3765 7.02942 37.8223 16.3507 39.6457C16.7743 39.7284 17.1848 39.4522 17.2675 39.0289C17.3502 38.6053 17.0743 38.1949 16.6507 38.1122C8.04901 36.4297 1.5625 28.6432 1.5625 20C1.5625 10.0058 10.0058 1.5625 20 1.5625C20.5704 1.5625 21.1554 1.59668 21.7953 1.66809C21.6479 2.21588 21.5625 2.81403 21.5625 3.35938C21.5625 5.25543 22.5623 7.13684 24.0549 8.15216C23.9542 8.6084 23.9062 9.03168 23.9062 9.45312C23.9062 13.1146 26.8854 16.0938 30.5469 16.0938C30.9683 16.0938 31.3916 16.0458 31.8478 15.9451C32.8632 17.4377 34.7446 18.4375 36.6406 18.4375C37.186 18.4375 37.7841 18.3521 38.3319 18.2047C38.4033 18.8446 38.4375 19.4296 38.4375 20C38.4375 28.6432 31.951 36.4297 23.3493 38.1122C22.9257 38.1949 22.6498 38.6053 22.7325 39.0286C22.8152 39.4522 23.2257 39.7284 23.6493 39.6457C32.9706 37.8223 40 29.3765 40 20C40 19.0781 39.9203 18.1308 39.7495 17.0181C39.6692 16.4938 39.0991 16.1996 38.6249 16.4395Z" fill="#00003F"/>
</svg>

<svg width="40" height="40" fill="none" xmlns="http://www.w3.org/2000/svg"><path d="M30.156 20a.781.781 0 1 1-1.562 0 .781.781 0 0 1 1.562 0Zm-7.812-4.687a.781.781 0 1 1-1.563 0 .781.781 0 0 1 1.563 0Zm-1.563 16.406a.781.781 0 1 1-1.562 0 .781.781 0 0 1 1.562 0ZM9.063 17.656a.781.781 0 1 1-1.563 0 .781.781 0 0 1 1.563 0Z" fill="#00003F"/><path d="M11.406 30.938a3.129 3.129 0 0 0 3.125-3.125 3.129 3.129 0 0 0-3.125-3.125 3.129 3.129 0 0 0-3.125 3.125 3.129 3.129 0 0 0 3.125 3.125Zm0-4.688c.862 0 1.563.701 1.563 1.563 0 .861-.701 1.562-1.563 1.562a1.564 1.564 0 0 1-1.562-1.563c0-.861.7-1.562 1.562-1.562Zm7.032-16.406a3.129 3.129 0 0 0-3.125-3.125 3.129 3.129 0 0 0-3.126 3.125 3.129 3.129 0 0 0 3.126 3.125 3.129 3.129 0 0 0 3.124-3.125Zm-4.688 0c0-.862.701-1.563 1.563-1.563.861 0 1.562.701 1.562 1.563a1.563 1.563 0 0 1-3.125 0Zm10.156 17.187a3.129 3.129 0 0 0 3.125 3.125 3.129 3.129 0 0 0 3.125-3.125 3.129 3.129 0 0 0-3.125-3.125 3.129 3.129 0 0 0-3.125 3.125Zm4.688 0c0 .862-.701 1.563-1.563 1.563a1.564 1.564 0 0 1-1.562-1.563 1.563 1.563 0 0 1 3.125 0Zm-10.156-3.125a2.346 2.346 0 0 0 2.343-2.343 2.346 2.346 0 0 0-2.343-2.344 2.346 2.346 0 0 0-2.344 2.343 2.346 2.346 0 0 0 2.343 2.344Zm0-3.125a.782.782 0 1 1-.002 1.564.782.782 0 0 1 .002-1.564Z" fill="#ECB000"/><path d="M20.781 39.219a.781.781 0 1 1-1.562 0 .781.781 0 0 1 1.562 0Z" fill="#00003F"/><path d="M38.625 16.44c-.507.256-1.323.435-1.984.435-1.553 0-3.083-.897-3.72-2.182a.782.782 0 0 0-.924-.401c-.546.163-1.007.24-1.45.24a5.084 5.084 0 0 1-5.078-5.079c0-.443.076-.904.239-1.45a.78.78 0 0 0-.401-.924c-1.285-.637-2.182-2.167-2.182-3.72 0-.66.18-1.477.436-1.984a.781.781 0 0 0-.58-1.124C21.87.08 20.922 0 20 0 9.22 0 0 9.203 0 20c0 9.377 7.03 17.822 16.35 19.646a.781.781 0 0 0 .3-1.534C8.05 36.43 1.564 28.643 1.564 20c0-9.994 8.443-18.438 18.437-18.438.57 0 1.155.035 1.795.106a6.695 6.695 0 0 0-.233 1.691c0 1.896 1 3.778 2.493 4.793-.1.456-.149.88-.149 1.301 0 3.662 2.98 6.64 6.64 6.64a5.96 5.96 0 0 0 1.302-.148c1.015 1.493 2.897 2.492 4.793 2.492a6.7 6.7 0 0 0 1.69-.232c.072.64.106 1.225.106 1.795 0 8.643-6.486 16.43-15.088 18.112a.781.781 0 1 0 .3 1.534C32.971 37.822 40 29.376 40 20c0-.922-.08-1.87-.25-2.982a.781.781 0 0 0-1.125-.579Z" fill="#00003F"/></svg>
